X: 25872
T: Matinee
R: hornpipe
M: 4/4
K: Dmajor
E2DE B,DGD|EEDE B,DGD|FEG,A, B,=CDE|FEE=C F3E|
F2EF =CEAE|F2EF =CEAE|F2^EF =cFBF|ADFD EDB,D|
E2DE B,DGD|EGDE B,DGD|FEG,A, B,=CDE|FEE=C F3E|
F2EF =CEAE|F2EF =CEAE|D2=cD ADEF|G2B2 G3^G||
A2GA EADA|C2c2 B2A2|B2AB FB (3EFE|D2 (3faf e2d2|
c2Bc BcA2|B2AB ABF2|AE2F G2E2|D2C2 B,2A,2|
A2GA EADA|C2c2 B2A2|B2AB FB (3EFE|D2 (3faf e2d2|
d2cd edcB|AF2d BAF2|A2GA FAEA|D2A2 d4||

